X:67
T:Mrs. Hubbard's Allemand THO4.067
M:2/4
L:1/8
Z:vmp. Peter Dunk 2010/11.from a transcription by Fynn Titford-Mock 2007
B:Thompson's Compleat Collection of 200 Favourite Country Dances Volume IV.
Q:1/4=140
K:G
GB/G/ Bd|gd)(dc)|B2 {d/}cB/A/|BB B2|\
G(B/G/) Bd|(gd)(dc)|B2 {d/}cB/A/|GG G2|
d>Bg>d| c>Aa>c|{c/}BA/B/ {e/}dc/B/|AF D2|\
d>Bg>d|c>Aa>c|{c/}TBA/B/ {e/}dc/B/|GG G2|
"P."(G,B,)B,B,|(A,C)CC|B,D DC/B,/|A,A, A,2|\
(G,B,)B,B,|(A,C)CC|B,D {D/}CB,/A,/|G,G, G,2|
"for."(G,B,)B,B,|(A,C)CC|B,D {E/}DC/B,/|A,A, A,2|\
(G,B,)B,B,|(A,C)CC|B,D {D/}CB,/A,/|G,G, G,2|
